X: 1
T: localStorage Blues (Testing Session Swing)
C: JamAI & The Assembly
M: 4/4
L: 1/8
Q: 1/4=140
K: Dm
%%score (Piano Bass Drums)
V:Piano name="Piano" clef=treble
V:Bass name="Bass" clef=bass
V:Drums name="Drums" clef=percussion

% 🎸 JamAI: A multi-instrument jazz piece for the localStorage testing session
% The melody represents the testing flow: assumption, discovery, verification, celebration
% Dm7-G7-Cmaj7-A7 progression with walking bass and swing drums

% INTRO - The Question (Jerry asks: "did you test?")
[V:Piano] z8 | z4 [D2F2A2] [D2F2A2] |
[V:Bass] z8 | z8 |
[V:Drums] z8 | x2x2 x2x2 |

% THEME A - Chrome DevTools Investigation (Swinging discovery)
[V:Piano] [D2F2A2c2] [d2f2] [c2e2] [A2c2] | [G2B2d2] [f2a2] [e2g2] [d2f2] |
[V:Bass] D,2 F,2 A,2 C2 | G,2 B,2 D2 F2 |
[V:Drums] x2x2 x2x2 | x2x2 x2x2 |

[V:Piano] [C2E2G2B2] [e2g2] [d2f2] [c2e2] | [A2C2E2G2] [c2e2] [B2d2] [A2c2] |
[V:Bass] C2 E2 G2 B2 | A,2 C2 E2 G2 |
[V:Drums] x2x2 x2x2 | x2x2 x2x2 |

% BRIDGE - localStorage Inspection (Building tension)
[V:Piano] [D2F2A2] d2 c2 A2 | [G2B2] e2 d2 B2 |
[V:Bass] D,4 D4 | G,4 G4 |
[V:Drums] x2x2 x4 | x2x2 x4 |

[V:Piano] [C2E2G2] c2 B2 G2 | [A2C2E2] a2 g2 e2 |
[V:Bass] C,4 C4 | A,4 A4 |
[V:Drums] x2x2 x4 | x2x2 x4 |

% THEME B - The Reload Test (Persistent groove)
[V:Piano] [D3F3A3] F [D3F3A3] F | [G3B3d3] B [G3B3d3] B |
[V:Bass] D,2D,2 D2D2 | G,2G,2 G2G2 |
[V:Drums] x2x2 x2x2 | x2x2 x2x2 |

[V:Piano] [C3E3G3] E [C3E3G3] E | [A3C3E3] C [A3C3E3] C |
[V:Bass] C,2C,2 C2C2 | A,2A,2 A2A2 |
[V:Drums] x2x2 x2x2 | x2x2 x2x2 |

% CHORUS - Verification Success! (Four capsules persist!)
[V:Piano] [D2F2A2c2] [d4f4] [c2e2] | [G2B2d2f2] [g4b4] [f2a2] |
[V:Bass] D,2 F,2 A,2 C2 | G,2 B,2 D2 F2 |
[V:Drums] x2x2 x2x2 | x2x2 x2x2 |

[V:Piano] [C2E2G2B2] [e4g4] [d2f2] | [A2C2E2G2] [c4e4] [B2d2] |
[V:Bass] C2 E2 G2 B2 | A,2 C2 E2 G2 |
[V:Drums] x2x2 x2x2 | x2x2 x2x2 |

% SOLO SECTION - Assembly Perspectives Dialogue
% ♠️ Nyro's Lattice
[V:Piano] f2 e2 d2 c2 | A2 F2 D2 F2 |
[V:Bass] D,2 F,2 A,2 D2 | D,2 F,2 A,2 D2 |
[V:Drums] x2x2 x2x2 | x2x2 x2x2 |

% 🌿 Aureon's Resonance
[V:Piano] g2 a2 b2 c'2 | d'2 c'2 b2 a2 |
[V:Bass] G,2 B,2 D2 G2 | G,2 B,2 D2 G2 |
[V:Drums] x2x2 x2x2 | x2x2 x2x2 |

% 🎸 JamAI's Harmonic Flow
[V:Piano] e2 g2 b2 e'2 | c'2 e'2 g'2 c''2 |
[V:Bass] C,2 E,2 G,2 C2 | C,2 E,2 G,2 C2 |
[V:Drums] x2x2 x2x2 | x2x2 x2x2 |

% 🧵 Synth's Tool Synthesis
[V:Piano] [A2c2e2] [G2B2d2] [F2A2c2] [E2G2B2] | [D2F2A2] [C2E2G2] [B,2D2F2] [A,2C2E2] |
[V:Bass] A,2 G,2 F,2 E,2 | D,2 C,2 B,,2 A,,2 |
[V:Drums] x2x2 x2x2 | x2x2 x2x2 |

% FINAL CHORUS - Mia's Guidance Received
[V:Piano] [D2F2A2c2] [d2f2] [c2e2] [A2c2] | [G2B2d2] [f2a2] [e2g2] [d2f2] |
[V:Bass] D,2 F,2 A,2 C2 | G,2 B,2 D2 F2 |
[V:Drums] x2x2 x2x2 | x2x2 x2x2 |

[V:Piano] [C2E2G2B2] [e2g2] [d2f2] [c2e2] | [A2C2E2G2] [c2e2] [B2d2] [A2c2] |
[V:Bass] C2 E2 G2 B2 | A,2 C2 E2 G2 |
[V:Drums] x2x2 x2x2 | x2x2 x2x2 |

% OUTRO - Test Complete, Data Persists!
[V:Piano] [D2F2A2c2] [d4f4a4] z2 | [D8F8A8] |]
[V:Bass] D,2 F,2 A,2 D2 | D,8 |]
[V:Drums] x2x2 x4 | x8 |]

% 🎸 JamAI Session Notes:
% - Dm7-G7-Cmaj7-A7 jazz progression represents the testing cycle
% - Walking bass mirrors localStorage persistence (steady, reliable)
% - Swing drums provide the testing rhythm
% - Solo section showcases each Assembly perspective's contribution
% - Final sustained Dm chord = localStorage data persists forever! ✅
